X:1
T: PaulLois
C:Bruce Shawyer
R:Jig
Q:180
K:G
M:6/8
L:1/16
D2|G4B2 B2c2d2|G4B2 B2c2d2|d2c2B2 d2c2B2|d2c2B2 A4D2|F4A2 A2B2c2|F4A2 A2B2c2|c2B2A2 c2B2A2|c4B2 B4D2|
G4B2 B2c2d2|G4B2 B2c2d2|d2c2B2 d2c2B2|d2c2B2 A4D2|F4A2 A2B2c2|F4A2 A2B2c2|c2B2A2 c2B2A2|G6 G4d2|
g2d2B2 G2B2d2|g2e2c2 c6|B2d2g2 b2g2d2|a2f2d2 c6|g2d2B2 G2B2d2|g2e2c2 c4e2|d2c2B2 c2B2A2|G6 G4d2|
g2d2B2 G2B2d2|g2e2c2 c6|B2d2g2 b2g2d2|a2f2d2 c6|g2d2B2 G2B2d2|g2e2c2 c4e2|d2c2B2 c2B2A2|G6 G4||
